X: 9219
T: Dan Coakley's
R: polka
M: 2/4
K: Dmajor
|:A/G/|FA/F/ EF/E/|DF A^G/A/|BA DD/E/|FB BA|
F2 EF/E/|DF A>A|B^A Bc|d2- d:|
|:F/A/|BA F>A|BA FF/A/|c/B/A D>E|FB BA|
FA/F/ EF/E/|D/E/F A^G/A/|1 B>^A Bc|d2 d:|2 B^A Bc|d2 D||

